X: 4
T: The Humours Of Kiltyclogher
R: jig
M: 6/8
L: 1/8
K: Ador
|:B|AGE G2E|cGE EFG|D3 D2E|GED D2B|
AGE G2E|cGE EFG|A3 BGE|A3 A2:|
|:B|c2B c2d|ecA ABc|BAG GA/B/c|dBG GAB|
c2B c2d|ecA ABc|BAG GAB|A3 A2:|


Tune 1043	Setting 14273

